X: 3
T: Drag Her Round The Road
R: reel
M: 4/4
L: 1/8
K: Emin
GA|BEED E2DE|EDB,D DEGA|BEED E2DE|1 GABA A2:|2 GABA A3|E|G2GF GBdB|c2AB cded|B2BA GABd|dBGB AEED|G2GF GBdB|cBAB cdeg|gedB c2eB|dBGB A2||"end" GE|G6||


Tune 1148	Setting 28217

